X:1
T:F# minor          Barnabas McKyes, 1832
T:Isaac Watts, 1719 (Psalm 102, Part 3)          88. 88. (L. M.)
T:Supplication
T:Transcribed from Burnham's Colonial Harmonist, 1832.
%%score [ 1 2 3 4 ]
L:1/8
Q:1/4=120
M:3/2
K:A
V:1 treble nm="Tr." snm="Tr."
V:2 treble nm="C." snm="C."
V:3 treble-8 nm="T." snm="T."
V:4 bass nm="B." snm="B."
V:1
"^1. Spare  us,  O     Lord,      a –   loud         we   pray,  Nor  let  our  sun  go   down    at   noon;   Thy   years      are        one          e  –  ter – nal\n2. 'Twas  he  this  earth's    foun – da  –  tion    laid;  Heav'n is the building  of       his  hand;   This   earth     grows   old, these heav'ns shall" c4 | %1
 c8 A4 | (e3 d c4) A4 | (F3 c A4) B4 | c8 e4 | c3 B A4 B4 | (A3 B c4) e4 | e8 (f2 c2) | A8 G4 | %9
 (A3 G F4) F4 | c8 (c2 e2) | %11
"^1. day,  And      must    thy    chil – dren    die         so              soon?                                                    Yet   in  the  midst  of death and  grief   This\n2. fade, And      all          be  changed   at      his        com   –    mand.                                                   Be–fore thy face thy church shall  live,  And" B8 (3(B2 c2 d2) | %12
 (e4 f4) (cB A2) | G8 (AB c2) | (e3 d c4) c4 | c8 z4 ||[M:2/2] z8 | z4 z2 A2 | c2 c2 c2 dB | %19
 G2 G2 G3 B | e>dcB A2 Bd | c2 c2 c4- | c4 z2 z[Q:1/4=90] c |:[M:6/8] ABB c2 e | f2 d B2 e | %25
 cAc e2 e |1 d2 c c2 c :|2 d2 c c3- | c6 |] %29
V:2
 F4 | F8 (A3 F) | E8 E4 | F8 (E2 F2) | ^E8 =E4 | A3 A A4 (3(E2 F2 G2) | (F4 C4) (E2 G2) | A8 C4 | %8
 E8 (E2 ^D2) | (E4 A4) F4 | F8 E4 | E8 (A2 F2) | (G4 F4) E4 | E8 (A2 F2) | G8 (3(G2 F2 ^E2) | %15
 F8 z4 ||[M:2/2] z8 | z4 z2 A2 | F2 F2 F3 E | G2 G2 G3 E | %20
"^1. thought our sorrow should assuage:     Our  Father and our  Savior  live;   Christ is the same through every age. Our     eve–ry  age.\n2. on thy throne  thy children  reign;     This dying world shall they survive,  And the dead saints be raised again. This   raised  again." A>FEC E2 E2 | %21
 F2 ^E2 F4- | F4 z2 z F |:[M:6/8] AGE E2 E | F2 F F2 G | A2 F EDC |1 F2 F F2 F :|2 F2 F F3- | F6 |] %29
V:3
"^1. Spare  us,  O     Lord,      a –   loud         we   pray,  Nor  let  our  sun  go   down    at   noon;   Thy   years      are        one          e  –  ter – nal \n2. 'Twas  he  this  earth's    foun – da  –  tion    laid;  Heav'n is the building  of       his  hand;   This   earth     grows   old, these heav'ns shall" [FA]4 | %1
 A8 F4 | c8 (e2 c2) | (f4 c4) (B3 A) | G8 c4 | e3 d c4 (3(B2 A2 G2) | (F3 c A4) (B2 G2) | c8 f4 | %8
 (c3 d e4) B4 | (A3 B c4) (c2 A2) | F8 (A2 c2) | %11
"^1. day,  And     must    thy     chil – dren    die   so  soon?   Yet in the midst of death and grief This thought our sorrow should assuage: This\n2. fade, And      all        be  changed   at    his  com–mand. Before thy face thy church shall  live,  And on thy throne thychildren reign; And" e8 f4 | %12
 c8 (e2 c2) | B8 (c2 A2) | G8 (^EF G2) | F8 z2 F2 ||[M:2/2] c2 c2 c2 dB | G2 G2 G3 E | A3 G F3 A | %19
 B2 B2 B2 G2 | c>def e2 cB | cA G2 F4- | F4 z2 z F |:[M:6/8] cee e2 [Bd] | cf f/e/ f2 c | %25
 AcA G2 A/G/ |1 F2 ^E F2 F :|2 F2 ^E F3- | F6 |] %29
V:4
 F,4 | F,8 F,4 | A,8 A,4 | F,8 (G,2 F,2) | C,8 A,4 | A,3 C F,4 (G,2 E,2) | F,8 E,4 | A,8 F,4 | %8
 (C3 B, A,4) B,4 | C8 F,4 | F,8 (C,2 A,,2) | E,8 D,4 | (C,4 F,4) (C2 A,2) | E,8 A,,4 | C,8 C,4 | %15
 F,8 z2 F,2 ||[M:2/2] A,2 F,2 F,2 B,G, | ^E,2 C,2 C,3 D, | F,3 G, A,3 F, | B,>A, G,F, ^E,2 G,2 | %20
 A,3 F, CB, A,G, | F,2 C,2 F,4- | F,4 z2 z A, |:[M:6/8] F,E,E, A,2 B, | CB,B, B,2 A, | %25
 F,2 F, C,2 A,, |1 B,,2 C, F,2 A, :|2 B,,2 C, F,3- | F,6 |] %29

